packages/core/src/svgs/tokens/branded/WOMBAT.svg

<svg width="24" height="24" viewBox="0 0 24 24" fill="none" xmlns="http://www.w3.org/2000/svg">
<path fill-rule="evenodd" clip-rule="evenodd" d="M17.5382 14.3106C18.0851 14.2518 18.4437 14.2048 18.6376 13.8873C18.6966 13.7833 18.7304 13.667 18.7365 13.5475C18.7426 13.4281 18.7209 13.3089 18.673 13.1994C18.4789 12.7233 18.2497 12.2588 17.985 11.8179C17.8119 11.5528 17.6698 11.2687 17.5618 10.9712C17.5148 10.201 15.5041 7.69643 14.2224 6.597C14.1048 6.13254 13.9284 5.69159 13.6815 5.28004C13.5812 5.07346 13.4274 4.89747 13.2362 4.77033C13.0449 4.64317 12.8231 4.56948 12.5938 4.5569C12.3939 4.5569 12.2058 4.61569 12.0353 4.71564C11.7472 4.88614 11.4885 5.09779 11.2709 5.3506C10.7477 5.26829 10.2245 5.22713 9.70124 5.22126C9.49547 5.22126 9.2897 5.23302 9.08387 5.25066C8.94276 5.00373 8.77227 4.78031 8.56649 4.58041C8.33132 4.34525 8.00795 4.21001 7.66696 4.2159C7.3436 4.21001 7.02612 4.33348 6.78508 4.54514C6.47935 4.81558 6.21478 5.13306 6.01489 5.4917H5.94433C5.87231 5.48578 5.80368 5.45859 5.74716 5.41356C5.69063 5.36855 5.64875 5.30775 5.62685 5.23889C5.60368 5.17105 5.60139 5.09781 5.62025 5.02864C5.63912 4.95947 5.67827 4.89755 5.73268 4.85087C5.73268 4.85087 5.53279 4.47459 5.45048 4.54514C5.45048 4.55102 5.42696 4.54514 5.41519 4.53338L5.39168 4.5275L5.35641 4.56278C4.2033 5.58508 3.30283 6.86073 2.72569 8.28961C2.14856 9.71855 1.91047 11.2617 2.03009 12.798C2.14971 14.3345 2.62382 15.8221 3.41517 17.1445C4.20653 18.4668 5.29361 19.5876 6.59106 20.4192C7.75024 21.171 9.05403 21.6716 10.4184 21.889L10.5478 21.9066C10.6654 21.9184 10.6183 21.4363 10.6183 21.4363C10.1432 21.3779 9.7055 21.1491 9.38655 20.7921C9.06753 20.4353 8.88894 19.9748 8.88398 19.4961C8.85094 19.0307 8.98936 18.5693 9.2731 18.1989C9.55693 17.8285 9.96642 17.5747 10.4243 17.4854C10.795 17.404 11.1736 17.3646 11.5532 17.3679C12.2175 17.3854 12.8818 17.4502 13.5344 17.5678L14.0812 17.6501H14.1283C14.3987 17.6912 14.681 17.7206 14.9396 17.7383C15.0571 17.7499 15.1924 17.7499 15.3159 17.7499C16.6446 17.7499 17.3854 17.2208 17.7793 16.7681C17.8746 16.6574 17.9409 16.5246 17.9722 16.3818C18.0034 16.2391 17.9988 16.0908 17.9586 15.9504C17.9184 15.8097 17.8439 15.6815 17.7417 15.577C17.6396 15.4724 17.5131 15.3948 17.3736 15.3513C17.1946 15.3214 17.0326 15.2273 16.9179 15.0867C16.8032 14.9459 16.7437 14.7683 16.7504 14.5869C16.7559 14.5536 16.768 14.5216 16.7857 14.4929C16.8064 14.4641 16.8326 14.4398 16.8629 14.4217C16.8932 14.4035 16.927 14.3917 16.9621 14.387C17.1517 14.3575 17.3418 14.332 17.5323 14.3106H17.5382ZM11.6355 11.1182C12.2234 12.2763 12.8231 12.1471 13.5169 11.8884C13.5169 11.8884 13.1053 9.88934 11.6355 11.124V11.1182Z" fill="#FF4F24"/>
<path d="M17.9798 16.268C17.9798 17.6144 16.3454 18.3846 13.9819 18.1494C12.3945 17.9731 10.2133 18.0789 9.79588 18.8961C9.09032 20.2837 10.9071 21.8651 10.8248 21.8592C10.6836 21.8476 10.6954 21.9181 10.5542 21.9004L10.4249 21.8769C8.8783 21.634 7.41142 21.0275 6.1448 20.1073C5.08036 19.342 4.22848 18.3181 3.66962 17.1323C1.98227 13.4695 4.40454 10.9591 6.03898 10.4065C3.5638 12.4936 4.74554 16.0329 7.23835 16.6855C8.00265 16.8854 8.81987 16.8677 9.57241 16.6266C10.084 16.5091 10.5601 16.2739 10.9717 15.9624C10.9717 15.9624 14.8284 17.1323 16.1749 16.8795C16.2572 16.8619 16.3336 16.8324 16.4041 16.809C17.2038 16.5561 17.5801 16.0447 16.9921 15.7096H16.9744L17.0273 15.6743C17.2331 15.5332 17.9798 15.1039 17.9798 16.2621V16.268ZM8.30837 6.19097C7.81451 6.26741 7.2795 6.36735 6.83855 6.4673C6.9455 6.10249 7.14619 5.77207 7.42061 5.50898C7.47223 5.47374 7.53281 5.45391 7.59527 5.45184C7.65774 5.44976 7.71952 5.46549 7.77336 5.49722C8.00265 5.69124 8.18491 5.92642 8.30837 6.19097Z" fill="#A53A2F"/>
<path fill-rule="evenodd" clip-rule="evenodd" d="M12.0053 21.4068C14.5001 21.4068 16.8928 20.4158 18.6569 18.6516C20.4211 16.8875 21.4121 14.4949 21.4121 12.0001C21.4121 9.5051 20.4211 7.11249 18.6569 5.34837C16.8928 3.58424 14.5001 2.59317 12.0053 2.59317C9.51048 2.59317 7.11774 3.58424 5.35362 5.34837C3.5895 7.11249 2.59842 9.5051 2.59842 12.0001C2.59842 14.4949 3.5895 16.8875 5.35362 18.6516C7.11774 20.4158 9.51048 21.4068 12.0053 21.4068ZM12.0053 21.9948C14.6561 21.9948 17.1982 20.9418 19.0727 19.0673C20.947 17.193 22 14.6508 22 12.0001C22 9.34926 20.947 6.80703 19.0727 4.93264C17.1982 3.05827 14.6561 2.00525 12.0053 2.00525C9.3545 2.00525 6.81228 3.05827 4.93789 4.93264C3.06351 6.80703 2.0105 9.34926 2.0105 12.0001C2.0105 14.6508 3.06351 17.193 4.93789 19.0673C6.81228 20.9418 9.3545 21.9948 12.0053 21.9948Z" fill="#FF4F24"/>
<path d="M16.7094 14.3514C16.239 14.5867 16.9034 15.6272 17.2973 16.1153L17.8852 16.7031C18.5908 15.2922 18.7672 13.9576 18.7672 13.4696C18.1792 14.3514 17.2973 14.0576 16.7094 14.3514Z" fill="#A53A2F"/>
</svg>

<svg xmlns="http://www.w3.org/2000/svg" width="24" height="24" fill="none" viewBox="0 0 24 24">
    <path fill="#FF4F24" fill-rule="evenodd" d="M17.538 14.31c.547-.058.906-.105 1.1-.423a.77.77 0 0 0 .035-.688 10 10 0 0 0-.688-1.381 4 4 0 0 1-.423-.847c-.047-.77-2.058-3.275-3.34-4.374a4.9 4.9 0 0 0-.54-1.317 1.29 1.29 0 0 0-1.088-.723 1.1 1.1 0 0 0-.559.159 3 3 0 0 0-.764.635 11 11 0 0 0-1.57-.13q-.309.001-.617.03a3 3 0 0 0-.518-.67 1.24 1.24 0 0 0-.899-.365 1.3 1.3 0 0 0-.882.33 3.6 3.6 0 0 0-.77.946h-.07a.36.36 0 0 1-.318-.253.36.36 0 0 1 .106-.388s-.2-.376-.283-.306c0 .006-.023 0-.035-.012l-.023-.006-.036.036a9.97 9.97 0 0 0 1.235 15.856 9.9 9.9 0 0 0 3.827 1.47l.13.018c.117.011.07-.47.07-.47a1.975 1.975 0 0 1-1.734-1.94 1.91 1.91 0 0 1 1.54-2.012q.558-.121 1.13-.117c.663.017 1.328.082 1.98.2l.547.082h.047c.27.041.553.07.812.088.117.012.252.012.376.012 1.329 0 2.07-.53 2.463-.982a.88.88 0 0 0-.405-1.417.75.75 0 0 1-.624-.764.3.3 0 0 1 .036-.094.26.26 0 0 1 .176-.106q.285-.045.57-.076zm-5.902-3.192c.587 1.158 1.187 1.03 1.88.77 0 0-.41-1.999-1.88-.764z" clip-rule="evenodd"/>
    <path fill="#A53A2F" d="M17.98 16.268c0 1.346-1.635 2.117-3.998 1.881-1.587-.176-3.769-.07-4.186.747-.706 1.388 1.111 2.97 1.029 2.963-.141-.011-.13.06-.27.041l-.13-.023a9.9 9.9 0 0 1-4.28-1.77 7.7 7.7 0 0 1-2.475-2.975c-1.688-3.663.735-6.173 2.369-6.726-2.475 2.088-1.293 5.627 1.2 6.28.764.2 1.58.182 2.333-.06a3.7 3.7 0 0 0 1.4-.664s3.856 1.17 5.203.918c.082-.018.159-.048.23-.071.799-.253 1.175-.764.587-1.1h-.018l.053-.035c.206-.14.953-.57.953.588zM8.308 6.191c-.493.076-1.029.176-1.47.276a2.17 2.17 0 0 1 .583-.958.33.33 0 0 1 .352-.012c.23.194.412.43.535.694"/>
    <path fill="#FF4F24" fill-rule="evenodd" d="M12.005 21.407a9.406 9.406 0 1 0 0-18.813 9.406 9.406 0 0 0 0 18.813m0 .588a9.995 9.995 0 1 0 0-19.99 9.995 9.995 0 0 0 0 19.99" clip-rule="evenodd"/>
    <path fill="#A53A2F" d="M16.71 14.351c-.471.236.193 1.276.587 1.764l.588.588c.706-1.41.882-2.745.882-3.233-.588.881-1.47.588-2.058.881"/>
</svg>
